X: 2
T: Reel du Brae
I: Reel du Brae		R-124	A Dor	reel
M: C|
R: reel
%%musicspace 0pt
K: ADor
"Am"A,B,CD EA,A,G,| A,B,CD EA,A,D| "Em"EFGA BG"D"Ad| "G"BGdG eGdG|
"Am"A,B,CD EA,A,G,| A,B,CD EA,A,D| "Em"EFGA BA"C"Gc| "G"BAGB "Am"A2A2 :|
|:"Am"eaab agea| gabg abef| "G"gage degd| egdB cABG|
"Am"eaab agea| gabg abef| "C"gage "G"dBGB| cABG "Am"A2AA :|
%%text Roaring Jelly  R-125

